X:1
T:Partition sans titre
C:Compositeur / Arrangeur
L:1/8
M:4/4
I:linebreak $
K:A
V:1 treble nm="Violon" snm="Vln."
V:1
 EAB |"A" c3 e cBAB | c3 e cBAB |"D" F3 A"A" E3 c |1"E" BAGA B :|2"E" BAGB"A" ABce |: %6
"D" f3 a fece | f3 a fecA | F3 A"A" E3 c |1"E" BAGA"A" BEce :|2"E" BAGB"A" A |] %11
